svg/fluentui-system-icons/ic_fluent_text_column_one_wide_lightning_20_regular.svg

<svg width="20" height="20" viewBox="0 0 20 20" fill="none" xmlns="http://www.w3.org/2000/svg">
<path d="M3.5 5C3.22386 5 3 5.22386 3 5.5C3 5.77614 3.22386 6 3.5 6H16.5C16.7761 6 17 5.77614 17 5.5C17 5.22386 16.7761 5 16.5 5H3.5ZM3.5 8C3.22386 8 3 8.22386 3 8.5C3 8.77614 3.22386 9 3.5 9H16.5C16.7761 9 17 8.77614 17 8.5C17 8.22386 16.7761 8 16.5 8H3.5ZM9 14.5C9 14.3315 9.00758 14.1647 9.02242 14H3.5C3.22386 14 3 14.2239 3 14.5C3 14.7761 3.22386 15 3.5 15H9.02242C9.00758 14.8353 9 14.6685 9 14.5ZM9.59971 12C9.78261 11.6422 10.0035 11.3071 10.2572 11H3.5C3.22386 11 3 11.2239 3 11.5C3 11.7761 3.22386 12 3.5 12H9.59971ZM19 14.5C19 16.9853 16.9853 19 14.5 19C12.0147 19 10 16.9853 10 14.5C10 12.0147 12.0147 10 14.5 10C16.9853 10 19 12.0147 19 14.5ZM13.88 11.5C13.6678 11.5 13.4788 11.6339 13.4083 11.834L12.5284 14.334C12.4745 14.487 12.4982 14.6566 12.592 14.789C12.6857 14.9213 12.8378 15 13 15H13.7758L13.2675 16.8688C13.2028 17.1069 13.3214 17.3566 13.5468 17.4569C13.7723 17.5571 14.0372 17.4779 14.1706 17.2704L16.4206 13.7704C16.5195 13.6165 16.5265 13.4209 16.4389 13.2604C16.3512 13.0999 16.1829 13 16 13H15.2537L15.5343 12.1581C15.5852 12.0056 15.5596 11.838 15.4656 11.7076C15.3716 11.5773 15.2207 11.5 15.06 11.5H13.88Z" fill="#212121"/>
</svg>

<svg xmlns="http://www.w3.org/2000/svg" width="20" height="20"><path d="M3.5 5a.5.5 0 0 0 0 1h13a.5.5 0 0 0 0-1h-13Zm0 3a.5.5 0 0 0 0 1h13a.5.5 0 0 0 0-1h-13ZM9 14.5c0-.168.008-.335.022-.5H3.5a.5.5 0 0 0 0 1h5.522A5.571 5.571 0 0 1 9 14.5Zm.6-2.5c.183-.358.404-.693.657-1H3.5a.5.5 0 0 0 0 1h6.1Zm9.4 2.5a4.5 4.5 0 1 1-9 0 4.5 4.5 0 0 1 9 0Zm-5.12-3a.5.5 0 0 0-.472.334l-.88 2.5A.5.5 0 0 0 13 15h.776l-.508 1.869a.5.5 0 0 0 .903.401l2.25-3.5A.5.5 0 0 0 16 13h-.746l.28-.842a.5.5 0 0 0-.474-.658h-1.18Z"/></svg>
